X:1
T:Himalayan Sunrise
M:4/4
L:1/8
Q:1/4=72
K:G
|: G,2 B,D GBdB | D2 FA dFAd | E2 GB eGBe | C2 EG cEGc :|
| g4 f4 | e4 d4 | c4 B4 | A4 G4 |
